icons/folder-settings-line.svg

<svg xmlns="http://www.w3.org/2000/svg" width="24" height="24" fill="none"><g clip-path="url(#a)"><g><path fill="#121212" d="M12.414 5H21C21.2652 5 21.5196 5.10536 21.7071 5.29289C21.8946 5.48043 22 5.73478 22 6V20C22 20.2652 21.8946 20.5196 21.7071 20.7071C21.5196 20.8946 21.2652 21 21 21H3C2.73478 21 2.48043 20.8946 2.29289 20.7071C2.10536 20.5196 2 20.2652 2 20V4C2 3.73478 2.10536 3.48043 2.29289 3.29289C2.48043 3.10536 2.73478 3 3 3H10.414L12.414 5ZM4 5V19H20V7H11.586L9.586 5H4ZM8.591 13.809C8.46429 13.2758 8.46429 12.7202 8.591 12.187L7.6 11.615L8.6 9.883L9.591 10.456C9.98885 10.079 10.4698 9.80083 10.995 9.644V8.5H12.995V9.644C13.527 9.803 14.005 10.084 14.398 10.456L15.39 9.883L16.39 11.614L15.399 12.187C15.5257 12.7202 15.5257 13.2758 15.399 13.809L16.39 14.381L15.39 16.112L14.399 15.54C14.001 15.9167 13.5201 16.1945 12.995 16.351V17.496H10.995V16.35C10.4699 16.1935 9.98896 15.9157 9.591 15.539L8.6 16.111L7.6 14.381L8.591 13.808V13.809ZM11.995 14.497C12.1965 14.5044 12.3973 14.471 12.5856 14.399C12.7739 14.327 12.9458 14.2178 13.0909 14.0778C13.236 13.9379 13.3514 13.7702 13.4303 13.5847C13.5091 13.3991 13.5498 13.1996 13.5498 12.998C13.5498 12.7964 13.5091 12.5969 13.4303 12.4113C13.3514 12.2258 13.236 12.0581 13.0909 11.9182C12.9458 11.7782 12.7739 11.669 12.5856 11.597C12.3973 11.525 12.1965 11.4916 11.995 11.499C11.6069 11.5132 11.2395 11.6773 10.9699 11.9569C10.7004 12.2364 10.5498 12.6097 10.5498 12.998C10.5498 13.3863 10.7004 13.7596 10.9699 14.0391C11.2395 14.3187 11.6069 14.4828 11.995 14.497Z"/></g></g><defs><clipPath id="a"><rect width="24" height="24" fill="white"/></clipPath></defs></svg>

<svg width="24" height="24" fill="none" xmlns="http://www.w3.org/2000/svg"><g clip-path="url(#a)"><path d="M12.414 5H21a1 1 0 0 1 1 1v14a1 1 0 0 1-1 1H3a1 1 0 0 1-1-1V4a1 1 0 0 1 1-1h7.414l2 2ZM4 5v14h16V7h-8.414l-2-2H4Zm4.591 8.809a3.508 3.508 0 0 1 0-1.622l-.991-.572 1-1.732.991.573a3.495 3.495 0 0 1 1.404-.812V8.5h2v1.144c.532.159 1.01.44 1.403.812l.992-.573 1 1.731-.991.573a3.508 3.508 0 0 1 0 1.622l.991.572-1 1.731-.991-.572a3.494 3.494 0 0 1-1.404.811v1.145h-2V16.35a3.494 3.494 0 0 1-1.404-.811l-.991.572-1-1.73.991-.573v.001Zm3.404.688a1.5 1.5 0 1 0 .11-2.997 1.5 1.5 0 0 0-.11 2.997Z" /></g><defs><clipPath id="a"><path fill="#fff" d="M0 0h24v24H0z"/></clipPath></defs></svg>
